Hatter-kde-dark/actions/22/final_activity.svg

<svg xmlns="http://www.w3.org/2000/svg" viewBox="0 0 22 22">
  <defs id="defs3051">
    <style type="text/css" id="current-color-scheme">
      .ColorScheme-Text {
        color:#dedede;
      }
      </style>
  </defs>
 <path 
     style="fill:currentColor;fill-opacity:1;stroke:none" 
     d="M 11 3 C 6.5817254 3 3.0000047 6.5817206 3 11 C 3.0000047 15.418279 6.5817254 19 11 19 C 15.418275 19 18.999995 15.418279 19 11 C 18.999995 6.5817206 15.418275 3 11 3 z M 11 4 C 12.660191 4.0004288 14.266188 4.5909096 15.53125 5.6660156 L 15.53125 5.6679688 C 15.54371 5.6873648 15.54928 5.698596 15.5625 5.71875 L 11 10.28125 L 6.4375 5.71875 C 6.44567 5.705644 6.4489602 5.6985249 6.4570312 5.6855469 C 7.7223998 4.6007743 9.333303 4.0030918 11 4 z M 5.71875 6.4375 L 10.28125 11 L 5.71875 15.5625 C 5.6171467 15.440805 5.5512717 15.375451 5.4570312 15.265625 C 4.514313 14.043295 4.0020659 12.543633 4 11 C 4.0008918 9.3404807 4.5913443 7.735253 5.6660156 6.4707031 C 5.6871048 6.4567728 5.6971198 6.4519431 5.71875 6.4375 z M 16.28125 6.4375 C 16.29045 6.4413 16.295507 6.4415525 16.304688 6.4453125 C 17.395606 7.7123566 17.996983 9.3280269 18 11 C 17.99955 12.666377 17.404652 14.277936 16.322266 15.544922 C 16.307246 15.552622 16.29715 15.55392 16.28125 15.5625 L 11.71875 11 L 16.28125 6.4375 z M 11 11.71875 L 15.5625 16.28125 C 15.5577 16.2914 15.555501 16.296561 15.550781 16.306641 C 14.284482 17.395983 12.67038 17.996594 11 18 C 9.3269314 17.998459 7.7097453 17.397731 6.4414062 16.306641 C 6.4396762 16.296321 6.43926 16.29165 6.4375 16.28125 L 11 11.71875 z "
     class="ColorScheme-Text"
     />
</svg>

<?xml version="1.0" encoding="UTF-8"?>
<svg viewBox="0 0 22 22" xmlns="http://www.w3.org/2000/svg">
 <defs id="defs3051">
  <style id="current-color-scheme" type="text/css">.ColorScheme-Text {
        color:#dedede;
      }</style>
 </defs>
 <path class="ColorScheme-Text" d="m11 3c-4.4183 0-8 3.5817-8 8 4.7e-6 4.4183 3.5817 8 8 8 4.4183 0 8-3.5817 8-8-5e-6 -4.4183-3.5817-8-8-8zm0 1c1.6602 4.288e-4 3.2662 0.59091 4.5312 1.666v0.0019532c0.01246 0.019396 0.01803 0.030627 0.03125 0.050781l-4.5625 4.5625-4.5625-4.5625c0.00817-0.013106 0.01146-0.020225 0.019531-0.033203 1.2654-1.0848 2.8763-1.6825 4.543-1.6855zm-5.2812 2.4375 4.5625 4.5625-4.5625 4.5625c-0.1016-0.1217-0.16748-0.18705-0.26172-0.29688-0.94272-1.2223-1.455-2.722-1.457-4.2656 8.918e-4 -1.6595 0.59134-3.2647 1.666-4.5293 0.021089-0.01393 0.031104-0.01876 0.052734-0.033203zm10.562 0c0.0092 0.0038 0.014257 0.0040525 0.023438 0.0078125 1.0909 1.267 1.6923 2.8827 1.6953 4.5547-4.5e-4 1.6664-0.59535 3.2779-1.6777 4.5449-0.01502 0.0077-0.025116 0.008998-0.041016 0.017578l-4.5625-4.5625 4.5625-4.5625zm-5.2812 5.2812 4.5625 4.5625c-0.0048 0.01015-0.006999 0.015311-0.011719 0.025391-1.2663 1.0893-2.8804 1.69-4.5508 1.6934-1.6731-0.001541-3.2903-0.60227-4.5586-1.6934-0.00173-0.01032-0.0021462-0.014991-0.0039062-0.025391l4.5625-4.5625z" fill="currentColor"/>
</svg>
